X:10623
T:McGurk's
M:6/8
L:1/8
Q:1/4=180
S:Play A,B,A,B,A
R:jig
N:Played in a set after the two Cape Breton Jigs
D:Music at Matt Molloy's
Z:Transcription by Dave Mos
K:D
f2 d faa|gec Ace|dAA eAA|fAA efg|!
f2 d faa|gec Ace|[1dAA dfa|gec d3:|[2dcd fga|gec d2 e||!
K:A
cea ece|dBG EGB|Aee Bee|cec Bcd|!
c2 a ece|dBG EGB|A2 A cec|[1dBG A3:|[2efg a2 =g||!
